!!!!SEGMENT: Ror0104-Quandio_son_tutto_volto.krn
!!!id: Ror0104
!!!AGN: Madrigal
!!!voices: 5
!!!COM: Cipriano de Rore
!!!OTL: Quand’io son tutto volto
**kern	**text	**kern	**text	**kern	**text	**kern	**text	**kern	**text
*part5	*part5	*part4	*part4	*part3	*part3	*part2	*part2	*part1	*part1
*staff5	*staff5	*staff4	*staff4	*staff3	*staff3	*staff2	*staff2	*staff1	*staff1
*I"Bassus	*	*I"Tenor II	*	*I"Tenor I	*	*I"Altus	*	*I"Superius	*
*I'B	*	*I'T. II	*	*I'T. I	*	*I'A	*	*I'S	*
*clefF4	*	*clefGv2	*	*clefGv2	*	*clefG2	*	*clefG2	*
*k[b-]	*	*k[b-]	*	*k[b-]	*	*k[b-]	*	*k[b-]	*
*F:	*	*F:	*	*F:	*	*F:	*	*F:	*
*M2/1	*	*M2/1	*	*M2/1	*	*M2/1	*	*M2/1	*
*met(C)	*	*met(C)	*	*met(C)	*	*met(C)	*	*met(C)	*
=1	=1	=1	=1	=1	=1	=1	=1	=1	=1
0r	.	1G	Quan-	1r	.	0r	.	1r	.
.	.	2.B-y	-d’io	1G	Quan-	.	.	1d	Quan-
.	.	4B-y	son	.	.	.	.	.	.
=2	=2	=2	=2	=2	=2	=2	=2	=2	=2
1D	Quan-	4A	tut-	2D	-d’io,	0r	.	2.f	-d’io
.	.	4A	-to	.	.	.	.	.	.
.	.	2d	vol-	1A	Quan-	.	.	.	.
.	.	.	.	.	.	.	.	4f	son
2AA	-d’io	4c	-to in	.	.	.	.	4e	tut-
.	.	2c	quel-	.	.	.	.	4e	-to
4AA	son	.	.	[2E	-d’io	.	.	2a	vol-
[4AA	tut-	4c	-la	.	.	.	.	.	.
=3	=3	=3	=3	=3	=3	=3	=3	=3	=3
8AAL]	.	2c	par-	4E]	.	2r	.	4a	-to in
8BB-yJ	.	.	.	.	.	.	.	.	.
2C	.	.	.	4E	son	.	.	2g	quel-
.	.	4G	-te,	4.E	tut-	4r	.	.	.
4C	-to	4c	in	.	.	2g	Quan-	4g	-la
.	.	.	.	8F	.	.	.	.	.
2GG	vol-	4B-y	quel-	2G	.	.	.	4.b-y	par-
.	.	4G	-la	.	.	2b-y	-d’io	.	.
.	.	.	.	.	.	.	.	8a	.
2GG	-to in	2G	par-	4G	-to	.	.	8gL	.
.	.	.	.	.	.	.	.	8fJ	.
.	.	.	.	4D	vol-	4b-y	son	4g	.
=4	=4	=4	=4	=4	=4	=4	=4	=4	=4
1.D	quel-	4F	-te,	4D	-to in	2.a	tut-	4a	-te,
.	.	4D	Quan-	2d	quel-	.	.	2f	quan-
.	.	2.F	-d’io	.	.	.	.	.	.
.	.	.	.	4d	-la	4a	-to	4d	-d’io
.	.	.	.	2A	par-	4dd	vol-	4d	son
.	.	4F	son	.	.	4dd	-to in	2a	tut-
2AA	-la	4E	tut-	[2A	-te,	[2cc	quel-	.	.
.	.	4E	-to	.	.	.	.	4a	-to
=5	=5	=5	=5	=5	=5	=5	=5	=5	=5
4.AA	par-	4A	vol-	2A]	.	4cc]	.	4a	vol-
.	.	4A	-to in	.	.	4cc	-la	4e	-to in
8BB-y	.	.	.	.	.	.	.	.	.
2C	.	2G	quel-	2r	.	2cc	par-	4.e	quel-
.	.	.	.	.	.	.	.	8f	.
2GG	-te,	4G	-la	2D	Quan-	4.b-y	-te	2g	.
.	.	4.B-y	par	.	.	.	.	.	.
.	.	.	.	.	.	8a	.	.	.
2GG	Quan-	.	.	[2B-y	-d’io	2g	.	4g	-la
.	.	8AL	.	.	.	.	.	.	.
.	.	8G	.	.	.	.	.	[4b-y	par-
.	.	8FJ	.	.	.	.	.	.	.
=6	=6	=6	=6	=6	=6	=6	=6	=6	=6
2.E-X	-d’io	2G	.	4B-]	.	4r	.	8b-L]	.
.	.	.	.	.	.	.	.	8a	.
.	.	.	.	4B-y	son	2g	O	8g	.
.	.	.	.	.	.	.	.	8fJ	.
.	.	2C	te,	4G	tut-	.	.	2g	.
4E-i	son	.	.	4G	-to	4cc	ve ’l	.	.
2D	tut-	1r	.	2.d	vol-	4f	bel	4a	-te
.	.	.	.	.	.	2ff	vi-	2a	O-
4D	-to	.	.	.	.	.	.	.	.
4G	vol-	.	.	4d	-to in	4dd	-so	4b-y	-ve ’l
=7	=7	=7	=7	=7	=7	=7	=7	=7	=7
4C	-to in	1r	.	2c	quel-	4ee	di	4g	bel
2F	quel-	.	.	.	.	4ff	ma-	4a	vi-
.	.	.	.	4c	-la	2ff	-don-	4a	-so
4D	-la	.	.	4.B-y	par-	.	.	2b-y	di
1E-X	par-	2G	O-	.	.	2b-y	-na	.	.
.	.	.	.	8AL	.	.	.	.	.
.	.	.	.	8G	.	.	.	4b-y	ma-
.	.	.	.	8FJ	.	.	.	.	.
.	.	4C	-ve ’l	2G	.	2cc	lu-	4g	-don-
.	.	4C	bel	.	.	.	.	4g	-na
=8	=8	=8	=8	=8	=8	=8	=8	=8	=8
2D	-te	4F	vi-	4A	-te	2dd	-ce,	2f	lu-
.	.	4D	-so	4A	O-	.	.	.	.
2r	.	2.G	di	4B-y	-ve ’l	4r	.	4d	-ce,
.	.	.	.	4B-y	bel	2dd	O-	4b-y	O-
1r	.	.	.	4G	vi-	.	.	4b-y	-ve ’l
.	.	4C	ma-	4c	-so	4ee-X	-ve ’l	4g	bel
.	.	4F	-don-	4A	di	4cc	bel	4a	vi-
.	.	4D	-na	4A	ma-	4ff	vi-	4a	-so
=9	=9	=9	=9	=9	=9	=9	=9	=9	=9
0r	.	4.G	lu-	2.B-y	-don-	4dd	-so	2g	di
.	.	.	.	.	.	2ee-X	di	.	.
.	.	8F	.	.	.	.	.	.	.
.	.	4.E-X	.	.	.	.	.	4g	ma-
.	.	.	.	4B-y	-na	4ee-i	ma-	2g	-don-
.	.	8D	.	.	.	.	.	.	.
.	.	2C	.	2c	lu-	2ee-i	-don-	.	.
.	.	.	.	.	.	.	.	4g	-na
.	.	2D	-ce,	4A	-ce,	2dd	-na	4.f#X	lu-
.	.	.	.	[4A	di	.	.	.	.
.	.	.	.	.	.	.	.	8g	.
=10	=10	=10	=10	=10	=10	=10	=10	=10	=10
2D	O-	2r	.	4A]	.	2ff	lu-	2a	.
.	.	.	.	4d	ma-	.	.	.	.
2E-X	-ve ’l	2G	Et	4c	-don-	4ee-X	-ce,	2g	-ce,
.	.	.	.	4.c	-na	2ee-i	Et	.	.
4C	bel	4G	m’è	.	.	.	.	1r	.
.	.	.	.	8B-yL	.	.	.	.	.
4D	vi-	4F	ri-	8A	.	2dd	m’è	.	.
.	.	.	.	8GJ	.	.	.	.	.
4D	-so	[2B-y	-ma-	4F	.	.	.	.	.
[4E-i	di	.	.	[4G	lu-	4b-y	ri-	.	.
=11	=11	=11	=11	=11	=11	=11	=11	=11	=11
4E-]	.	4B-]	.	8GL]	.	1ee-i	-ma-	1r	.
.	.	.	.	8AJ	.	.	.	.	.
4E-i	ma-	4G	-sa	2B-y	.	.	.	.	.
4C	-don-	2c	nel	.	.	.	.	.	.
4C	-na	.	.	4A	.	.	.	.	.
2BB-y	lu-	4F	pen-	4B-y	-ce,	4dd	-sa	2r	.
.	.	4.B-y	-sier	4F	Et	2dd	nel	.	.
2GG	-ce,	.	.	4G	m’è	.	.	2g	Et
.	.	8AL	.	.	.	.	.	.	.
.	.	8G	.	4B-y	ri-	4dd	pen-	.	.
.	.	8FJ	.	.	.	.	.	.	.
=12	=12	=12	=12	=12	=12	=12	=12	=12	=12
4r	.	4G	.	4.B-y	-ma-	4.dd	-sier	4g	m’è
4BB-y	Et	4D	la	.	.	.	.	4f	ri-
.	.	.	.	16ALL	.	8cc	la	.	.
.	.	.	.	16GJJ	.	.	.	.	.
4BB-y	m’è	4.d	lu-	4F	.	2b-y	lu-	2.b-y	-ma-
4GG	ri-	.	.	2G	-sa	.	.	.	.
.	.	8c	.	.	.	.	.	.	.
2E-X	-ma-	8B-yL	.	.	.	4g	-ce,	.	.
.	.	8GJ	.	.	.	.	.	.	.
.	.	4.c	.	2e-X	nel	4g	Et	4g	-sa
4C	-sa	.	.	.	.	4g	m’è	2cc	nel
.	.	8B-yL	.	.	.	.	.	.	.
[4F	nel	8A	.	[4c	pen-	4f	ri-	.	.
.	.	8GJ	.	.	.	.	.	.	.
=13	=13	=13	=13	=13	=13	=13	=13	=13	=13
4F]	.	2F	-ce,	4c]	.	2ff	-ma-	2a	pen-
4D	pen-	.	.	2d	-sier	.	.	.	.
2G	-sier	4r	.	.	.	4dd	-sa	4.b-y	-sier
.	.	4G	Et	4d	la	2gg	nel	.	.
.	.	.	.	.	.	.	.	8a	.
4G	la	4d	m’è	2B-y	lu-	.	.	8gL	.
.	.	.	.	.	.	.	.	8fJ	.
4.B-y	lu-	4d	ri-	.	.	4dd	pen-	4g	.
.	.	4.d	-ma-	2G	-ce,	4gg	-sier	4d	la
8AL	.	.	.	.	.	.	.	.	.
8G	.	.	.	.	.	4gg	la	[4dd	lu-
8FJ	.	8d	-sa	.	.	.	.	.	.
=14	=14	=14	=14	=14	=14	=14	=14	=14	=14
2G	.	4B-y	nel	4r	.	2gg	lu-	8ddL]	.
.	.	.	.	.	.	.	.	8ccJ	.
.	.	4d	pen-	2G	nel	.	.	4b-y	.
2C	-ce	4.c	-sier	.	.	2ee	-ce	4g	-ce
.	.	.	.	4G	pen-	.	.	2cc	Che
.	.	8B-y	.	.	.	.	.	.	.
1r	.	4A	.	4.F	-sier	4r	.	.	.
.	.	4A	la	.	.	2ff	Che	2a	m’ar-
.	.	.	.	8E	.	.	.	.	.
.	.	2B-y	lu-	4D	.	.	.	.	.
.	.	.	.	4G	la	[4dd	m’ar-	4g	-de e
=15	=15	=15	=15	=15	=15	=15	=15	=15	=15
2F	Che	2A	-ce	8DL	lu-	4dd]	.	2a	strug-
.	.	.	.	8E	.	.	.	.	.
.	.	.	.	8F	.	4cc	-de e	.	.
.	.	.	.	8GJ	.	.	.	.	.
2.D	m’ar-	4r	.	2A	.	4.ff	strug-	2a	-ge,
.	.	4F	Che	.	.	.	.	.	.
.	.	.	.	.	.	8ee	.	.	.
.	.	4F	m’ar-	4A	-ce	4dd	.	1r	.
4C	-de e	4E	-de e	2c	Che	4g	-ge	.	.
4.F	strug-	4F	strug-	.	.	4.a	den-	.	.
.	.	4c	-ge	[4A	m’ar-	.	.	.	.
8E	.	.	.	.	.	8g	.	.	.
=16	=16	=16	=16	=16	=16	=16	=16	=16	=16
4D	.	2.d	den-	4A]	.	4f	.	2r	.
4GG	-ge	.	.	4G	-de e	4b-y	-tro a	.	.
8DL	den-	.	.	2F	strug-	4a	par-	4r	.
8E	.	.	.	.	.	.	.	.	.
8F	.	4A	-tro a	.	.	4ff	-te a	2cc	Che
8GJ	.	.	.	.	.	.	.	.	.
4A	.	4c	par-	2F	-ge,	2ff	par-	.	.
4D	-tro a	4F	-te a	.	.	.	.	2a	m’ar-
4G	par-	2B-y	par-	2r	.	2dd	-te,	.	.
4G	-te a	.	.	.	.	.	.	4g	-de e
=17	=17	=17	=17	=17	=17	=17	=17	=17	=17
2F	par-	2A	-te,	2c	Che	4r	.	2a	strug-
.	.	.	.	.	.	4ff	Che	.	.
4F	-te,	2.c	Che	2A	m’ar-	4ff	m’ar-	2a	-ge
4F	Che	.	.	.	.	4ff	-de e	.	.
4C	m’ar-	.	.	4G	-de e	4ee	strug-	4r	.
4D	-de e	2A	m’ar-	2F	strug-	4ff	-ge	2a	den-
4D	strug-	.	.	.	.	4.dd	den-	.	.
4GG	-ge	4G	-de e	4D	-ge	.	.	4b-y	-tro a
.	.	.	.	.	.	8ee	.	.	.
=18	=18	=18	=18	=18	=18	=18	=18	=18	=18
2D	den-	2A	strug-	4D	den-	2ff	.	2.a	par-
.	.	.	.	4d	-tro a	.	.	.	.
4AA	-tro a	4A	-ge	4c#X	par-	4ee	-tro a	.	.
2BB-y	par-	2D	den-	4d	-te a	2dd	par-	4f	-te a
.	.	.	.	2B-y	par-	.	.	2g	par-
4GG	-te a	4G	-tro a	.	.	2dd	-te a	.	.
[2D	par-	4.F	par-	2A	-te,	.	.	[2a	-te,
.	.	.	.	.	.	[4ff	par-	.	.
.	.	8E	.	.	.	.	.	.	.
=19	=19	=19	=19	=19	=19	=19	=19	=19	=19
2D]	.	4D	.	4r	.	8ffL]	.	2a]	.
.	.	.	.	.	.	8eeJ	.	.	.
.	.	4F	-te a	2A	I’,	2dd	.	.	.
2AA	-te,	2E	par-	.	.	.	.	4r	.
.	.	.	.	4A	che	4cc#i	.	4a	I’,
2.D	I’,	4D	-te,	2F	te-	1dd	-te,	4a	che
.	.	2A	I’,	.	.	.	.	4.f	te-
.	.	.	.	4D	-mo	.	.	.	.
.	.	.	.	.	.	.	.	8eL	.
4D	che	4F	che	4A	del	.	.	8d	.
.	.	.	.	.	.	.	.	8cJ	.
=20	=20	=20	=20	=20	=20	=20	=20	=20	=20
2GG	te-	2B-y	te-	4.G	cor,	2r	.	2d	.
.	.	.	.	8F	che	.	.	.	.
4AA	-mo	2A	-mo,	4E	mi	2.ee	I’,	4c	-mo
4AA	del	.	.	4A	si	.	.	4cc	del
2C	cor,	2r	.	2G	par-	.	.	4.cc	cor,
.	.	.	.	.	.	4ee	che	.	.
.	.	.	.	.	.	.	.	8b-y	che
2D	che	2d	I’,	2F	-te,	2ff	te-	4a	mi
.	.	.	.	.	.	.	.	4a	si
=21	=21	=21	=21	=21	=21	=21	=21	=21	=21
4.GG	mi	4d	che	4.B-y	I’,	1dd	-mo	2g	par-
.	.	4.B-y	te-	.	.	.	.	.	.
8AA	.	.	.	8c	.	.	.	.	.
4BB-y	.	.	.	4d	.	.	.	4f	-te,
.	.	8AL	.	.	.	.	.	.	.
4BB-y	si	8G	.	4D	che	.	.	[4b-y	I’,
.	.	8FJ	.	.	.	.	.	.	.
2GG	par-	2G	.	2B-y	te-	2dd	del	4b-]	.
.	.	.	.	.	.	.	.	4g	che
2D	-te,	4F	-mo	4A	-mo	4.ff	cor,	2a	te-
.	.	4D	del	4d	del	.	.	.	.
.	.	.	.	.	.	8ee	che	.	.
=22	=22	=22	=22	=22	=22	=22	=22	=22	=22
2GG	del	4.G	cor	8dL	cor,	4dd	mi	4b-y	-mo
.	.	.	.	8c	.	.	.	.	.
.	.	.	.	8B-y	.	4dd	si	4g	del
.	.	8F	.	8AJ	.	.	.	.	.
4.C	cor	2E	che	8GL	.	2cc	par-	4g	cor
.	.	.	.	8F	.	.	.	.	.
.	.	.	.	8E	.	.	.	4g	che
8BB-y	che	.	.	8DJ	.	.	.	.	.
4AA	mi	4A	mi	4E	.	2cc	-te	4cc	mi
4C	si	4.G	si	4E	che	.	.	4cc	si
8GGL	par-	.	.	4G	mi	[2dd	Et	2b-y	par-
8AA	.	8F	.	.	.	.	.	.	.
8BB-y	.	[4F	par-	4D	si	.	.	.	.
8CJ	.	.	.	.	.	.	.	.	.
=23	=23	=23	=23	=23	=23	=23	=23	=23	=23
2D	.	8FL]	.	4.F	par-	4dd]	.	4a	-te
.	.	8G	.	.	.	.	.	.	.
.	.	8A	.	.	.	2ff	veg-	2a	Et
.	.	8B-yJ	.	8G	.	.	.	.	.
2AA	-te,	2c	.	4A	.	.	.	.	.
.	.	.	.	4A	-te	4ee	-gio	4cc	veg-
4D	si	1F	-te	4r	.	2ff	pres-	4a	-gio
4.BB-y	par-	.	.	4D	Et	.	.	2b-y	pres-
.	.	.	.	[2B-y	veg-	2dd	-so il	.	.
8CL	.	.	.	.	.	.	.	.	.
8D	.	.	.	.	.	.	.	4f	-so il
8EJ	.	.	.	.	.	.	.	.	.
=24	=24	=24	=24	=24	=24	=24	=24	=24	=24
2F	.	4r	.	4B-]	.	2cc	fin,	2.f	fin
.	.	2F	Et	4A	-gio	.	.	.	.
2BB-y	-te	.	.	2B-y	pres-	2.dd	Et	.	.
.	.	2B-y	veg-	.	.	.	.	4f	de
2r	.	.	.	4G	-so il	.	.	4b-y	la
.	.	4A	-gio	2F	fin	2ff	veg-	4cc	mia
2BB-y	Et	2B-y	pres-	.	.	.	.	2f	lu-
.	.	.	.	4B-y	de	4dd	-gio	.	.
=25	=25	=25	=25	=25	=25	=25	=25	=25	=25
2E-i	veg-	2G	-so il	4.B-y	la	4.ee-i	pres-	2g	-ce,
.	.	.	.	8c	.	16ddLL	.	.	.
.	.	.	.	.	.	16ccJJ	.	.	.
4D	-gio	4F	fin	4d	.	2b-y	.	2r	.
2E-i	pres-	4G	de	4B-y	mia	.	.	.	.
.	.	4G	la	2e-i	lu-	2cc	-so il	2r	.
4C	-so il	4A	mia	.	.	.	.	.	.
4BB-y	fin	2B-y	lu-	[2d	-ce,	4f	fin	2f	Et
4BB-y	de	.	.	.	.	[4ff	de	.	.
=26	=26	=26	=26	=26	=26	=26	=26	=26	=26
4.BB-y	la	4F	-ce,	2d]	.	4ff]	.	2b-y	veg-
.	.	4F	de	.	.	2dd	la	.	.
8C	.	.	.	.	.	.	.	.	.
4D	.	4F	la	2r	.	.	.	4a	-gio
4BB-y	mia	4F	mia	.	.	4dd	mia	2b-y	pres-
2E-i	lu-	4.G	lu-	4r	.	4.b-y	lu-	.	.
.	.	.	.	2B-y	de	.	.	4g	-so il
.	.	8A	.	.	.	8cc	.	.	.
2BB-y	-ce,	2B-y	.	.	.	2dd	.	4f	fin
.	.	.	.	4F	la	.	.	4f	de
=27	=27	=27	=27	=27	=27	=27	=27	=27	=27
2r	.	4B-y	-ce,	4G	mia	4dd	-ce,	4.b-y	la
.	.	4.G	Vo-	4.B-y	lu-	4.dd	Vo-	.	.
.	.	.	.	.	.	.	.	8cc	.
4r	.	.	.	.	.	.	.	4dd	.
.	.	8G	-me-	8AL	.	8dd	-me-	.	.
4C	de	4c	-ne in	8G	.	4ee-X	-ne in	4g	mia
.	.	.	.	8FJ	.	.	.	.	.
4GG	la	4B-y	gui-	2G	.	4dd	gui-	2b-y	lu-
4GG	mia	4G	-sa	.	.	4dd	-sa	.	.
4.D	lu-	2A	d’or-	4F	-ce,	2ff	d’or-	2a	-ce,
.	.	.	.	[4D	Vo-	.	.	.	.
8E	.	.	.	.	.	.	.	.	.
=28	=28	=28	=28	=28	=28	=28	=28	=28	=28
2F	.	2A	-bo	8DL]	.	4ff	-bo,	4.a	Vo-
.	.	.	.	8EJ	-me-	.	.	.	.
.	.	.	.	4F	-ne in	4.cc	Vo-	.	.
.	.	.	.	.	.	.	.	8b-y	-me-
2C	-ce,	2.G	sen-	4E-X	gui-	.	.	2cc	-ne in
.	.	.	.	.	.	8dd	-me-	.	.
.	.	.	.	4C	-sa	4ee-X	-ne,	.	.
2r	.	.	.	2G	d’or-	4.dd	Vo-	4b-y	gui-
.	.	4B-y	-za	.	.	.	.	4g	-sa
.	.	.	.	.	.	8eenXi	-me-	.	.
4.D	Vo-	8AL	lu-	4F	-bo,	4ff	-ne in	2a	d’or-
.	.	8G	.	.	.	.	.	.	.
.	.	8F	.	[4A	Vo-	4dd	gui-	.	.
8E	-me-	8EJ	.	.	.	.	.	.	.
=29	=29	=29	=29	=29	=29	=29	=29	=29	=29
4F	-ne in	4D	.	8AL]	.	4dd	-sa	4a	-bo
.	.	.	.	8B-yJ	-me-	.	.	.	.
4E-X	gui-	4.G	-ce,	2c	-ne in	2ee-X	d’or-	4g	sen-
4C	-sa	.	.	.	.	.	.	4g	-za
.	.	8FL	.	.	.	.	.	.	.
2G	d’or-	8G	.	4B-y	gui-	2dd	-bo	2b-y	lu-
.	.	8AJ	.	.	.	.	.	.	.
.	.	8B-yL	.	4G	-sa	.	.	.	.
.	.	8cJ	.	.	.	.	.	.	.
4D	-bo,	4d	.	2A	d’or-	2ff	sen-	4a	-ce,
4.F	Vo-	4.D	Vo-	.	.	.	.	4r	.
.	.	.	.	4A	-bo	[4dd	-za	[4a	Vo-
8EnXi	-me-	8E	-me-	.	.	.	.	.	.
=30	=30	=30	=30	=30	=30	=30	=30	=30	=30
4D	-ne in	4F	-ne in	4d	sen-	4dd]	.	8aL]	.
.	.	.	.	.	.	.	.	8b-yJ	-me-
2C	gui-	4E-X	gui-	4G	-za	2ee-X	lu-	2cc	-ne in
.	.	4C	-sa	4.G	lu-	.	.	.	.
4GG	-sa	2G	d’or-	.	.	4dd	-ce,	2b-y	gui-
.	.	.	.	8A	.	.	.	.	.
2GG	d’or-	.	.	2B-y	.	4.dd	Vo-	.	.
.	.	4G	-bo	.	.	.	.	4g	-sa
.	.	.	.	.	.	8eenXi	-me-	.	.
2D	-bo,	4F	sen-	4.A	-ce,	4ff	-ne in	2a	d’or-
.	.	4D	-za	.	.	[4ff	gui-	.	.
.	.	.	.	8G	.	.	.	.	.
=31	=31	=31	=31	=31	=31	=31	=31	=31	=31
4.D	Vo-	2A	lu-	4.F	.	8ffL]	.	4a	-bo
.	.	.	.	.	.	8eeJ	.	.	.
.	.	.	.	.	.	4dd	.	4.f	sen-
8E	-me-	.	.	8E	.	.	.	.	.
2F	-ne in	4A	-ce,	4D	.	4dd	-sa	.	.
.	.	.	.	.	.	.	.	8d	-za
.	.	4A	Che	4F	sen-	2cc	d’or-	4.a	lu-
4E-X	gui-	4.c	non	4C	-za	.	.	.	.
.	.	.	.	.	.	.	.	8g	.
4C	-sa	.	.	4E-X	lu-	4g	-bo	2g	.
.	.	8c	sa o-	.	.	.	.	.	.
2D	d’or-	4B-y	-ve	4D	-ce,	[2dd	sen-	.	.
.	.	4A	si	4d	Che	.	.	4f#i	.
=32	=32	=32	=32	=32	=32	=32	=32	=32	=32
2.GG	-bo	4.B-y	va-	4.d	non	4dd]	.	2g	-ce
.	.	.	.	.	.	4g	-za	.	.
.	.	8A	.	8c	sa o-	.	.	.	.
.	.	4G	.	4B-y	-ve	2dd	lu-	2r	.
4D	sen-	4F	-da, et	4A	si	.	.	.	.
4GG	-za	4D	pur	4B-y	va-	4dd	-ce,	2g	Che
4.C	lu-	4E	si	4G	-da, et	2cc	sen-	.	.
.	.	4.E	par-	4G	pur	.	.	4.cc	non
8BB-y	.	.	.	.	.	.	.	.	.
4AA	.	.	.	4A	si	4cc	-za	.	.
.	.	8F	.	.	.	.	.	8cc	sa o-
=33	=33	=33	=33	=33	=33	=33	=33	=33	=33
4GG	-ce	2G	.	2B-y	par-	4ee-X	lu-	4b-y	-ve
4GG	Che	.	.	.	.	4dd	.	4g	si
4.D	non	4F	-te,	4A	-te,	2dd	-ce,	4a	va-
.	.	2D	Che	4F	et	.	.	4a	-da, et
8C	sa o-	.	.	.	.	.	.	.	.
4BB-y	-ve	.	.	4F	pur	1r	.	4d	pur
4AA	si	4.A	non	4c	si	.	.	4e	si
2D	va-	.	.	2A	par-	.	.	4.f	par-
.	.	8G	sa o-	.	.	.	.	.	.
.	.	4F	-ve	.	.	.	.	.	.
.	.	.	.	.	.	.	.	8g	.
=34	=34	=34	=34	=34	=34	=34	=34	=34	=34
2AA	-da, et	4E	si	2A	-te,	2cc	Che	2a	.
.	.	2F	va-	.	.	.	.	.	.
4D	pur	.	.	2r	.	4.ff	non	4a	-te,
4D	si	4F	-da, et	.	.	.	.	4a	Che
.	.	.	.	.	.	8ff	sa o-	.	.
2C	par-	4G	pur	4r	.	4ee	-ve	4.cc	non
.	.	4E-X	si	2G	Che	4cc	si	.	.
.	.	.	.	.	.	.	.	8cc	sa o-
4GG	-te,	2D	par-	.	.	4.dd	va-	2b-y	-ve
4GG	et	.	.	[4d	non	.	.	.	.
.	.	.	.	.	.	8ee	.	.	.
=35	=35	=35	=35	=35	=35	=35	=35	=35	=35
4D	pur	2D	-te,	8dL]	.	4ff	.	4a	si
.	.	.	.	8cJ	sa o-	.	.	.	.
4GG	si	.	.	2B-y	-ve	4dd	-da, et	2b-y	va-
2G	par-	2r	.	.	.	4dd	pur	.	.
.	.	.	.	4B-y	si	4ee	si	4g	-da, et
2D	-te,	4r	.	4A	va-	4.ff	par-	4a	pur
.	.	4D	Che	4d	-da, et	.	.	4a	si
.	.	.	.	.	.	8ee	.	.	.
2r	.	4.G	non	4B-y	pur	8ddL	.	2b-y	par-
.	.	.	.	.	.	8ccJ	.	.	.
.	.	.	.	4G	si	[4dd	.	.	.
.	.	8G	sa o-	.	.	.	.	.	.
=36	=36	=36	=36	=36	=36	=36	=36	=36	=36
2AA	Che	4F	-ve	2A	par-	8ddL]	.	[0a	-te.
.	.	.	.	.	.	8ccJ	.	.	.
.	.	4E	si	.	.	4cc	.	.	.
4.D	non	4F	va-	4A	-te,	4a	-te,	.	.
.	.	4F	-da, et	4D	Che	2a	Che	.	.
8E	sa o-	.	.	.	.	.	.	.	.
4F	-ve	4D	pur	4.A	non	.	.	.	.
4D	si	4A	si	.	.	2dd	non	.	.
.	.	.	.	8G	sa o-	.	.	.	.
4D	va-	2A	par-	4F	-ve	.	.	.	.
4AA	-da, et	.	.	4E	si	4cc	sa o-	.	.
=37	=37	=37	=37	=37	=37	=37	=37	=37	=37
8DL	pur	4A	-te,	4F	va-	4.ff	-ve	0a]	.
8E	.	.	.	.	.	.	.	.	.
8F	.	4A	et	4D	-da, et	.	.	.	.
8GJ	.	.	.	.	.	8ff	si	.	.
4A	.	4F	pur	4D	pur	4ff	va-	.	.
4AA	si	4c	si	4E	si	4ee	-da, et	.	.
1D	par-	1A	par-	1F	par-	4dd	pur	.	.
.	.	.	.	.	.	4dd	si	.	.
.	.	.	.	.	.	2dd	par-	.	.
=38	=38	=38	=38	=38	=38	=38	=38	=38	=38
00AA	-te.	00A	-te.	00E	-te.	00cc#X	-te.	00r	.
=39||	=39||	=39||	=39||	=39||	=39||	=39||	=39||	=39||	=39||
2GG	Co-	2D	Co-	2G	Co-	2dd	Co-	2b-y	Co-
2D	-si	2.F	-si	2A	-si	4dd	-si	4a	-si
.	.	.	.	.	.	4dd	da-	4a	da-
4D	da-	.	.	4A	da-	4ff	-van-	2dd	-van-
2BB-y	-van-	4F	da-	4D	-van-	4ff	-ti a i	.	.
.	.	4F	-van-	4D	-ti a i	4.dd	col-	4dd	-ti a i
4GG	-ti a i	4G	-ti a i	[4d	col-	.	.	[4b-y	col-
.	.	.	.	.	.	8ee	.	.	.
=40	=40	=40	=40	=40	=40	=40	=40	=40	=40
4.D	col-	4F	col-	4d]	.	2.ff	.	4b-]	.
.	.	4F	-pi	4d	-pi	.	.	2a	-pi
8E	.	.	.	.	.	.	.	.	.
4F	.	4D	de	4.d	de	.	.	.	.
4BB-y	-pi	4D	la	.	.	4ff	-pi	2b-y	de
.	.	.	.	8c	.	.	.	.	.
4E-i	de	2G	mor-	4B-y	.	4ee-X	de	.	.
4E-i	la	.	.	4B-y	la	4ee-i	la	4g	la
2C	mor-	2G	-te,	2c	mor-	2ee-i	mor-	2g	mor-
=41	=41	=41	=41	=41	=41	=41	=41	=41	=41
4D	-te	4r	.	2A	-te	2dd	-te	4f	-te
4.F	Fu-	4D	Co-	.	.	.	.	4.f	Fu-
.	.	2A	-si	4.D	Fu-	4.ff	Fu-	.	.
8EL	.	.	.	.	.	.	.	8g	.
8D	.	.	.	.	.	.	.	4a	.
8CJ	.	.	.	8E	.	8ee	.	.	.
4.D	.	4A	da-	8FL	.	8ddL	.	2a	-go,
.	.	.	.	8GJ	.	8ccJ	.	.	.
.	.	2F	-van-	4A	.	4.dd	.	.	.
8C	.	.	.	.	.	.	.	.	.
2BB-y	.	.	.	2D	-go,	.	.	4r	.
.	.	.	.	.	.	8ee	.	.	.
.	.	4D	-ti a i	.	.	[4ff	.	[4dd	ma
=42	=42	=42	=42	=42	=42	=42	=42	=42	=42
2AA	-go,	4.A	col-	2r	.	8ffL]	.	4dd]	.
.	.	.	.	.	.	8eeJ	.	.	.
.	.	.	.	.	.	4ee	.	2cc	non
.	.	8B-y	.	.	.	.	.	.	.
4r	.	4c	.	2F	ma	2a	-go,	.	.
4D	ma	4F	-pi	.	.	.	.	4a	si
4GG	non	4B-y	de	4D	non	2dd	ma	2b-y	rat-
4GG	si	4G	la	4D	si	.	.	.	.
4.C	rat-	2G	mor-	[2E	rat-	[2cc	non	4g	-to,
.	.	.	.	.	.	.	.	[4cc	che ’l
8BB-y	.	.	.	.	.	.	.	.	.
=43	=43	=43	=43	=43	=43	=43	=43	=43	=43
2AA	.	2A	-te	4E]	.	4cc]	.	4cc]	.
.	.	.	.	4F#X	-to	4a	si	4cc	de-
2GG	-to,	4.d	Fu-	2G	che ’l	4.b-y	rat-	4b-y	-si-
.	.	.	.	.	.	.	.	4b-y	-o
.	.	8c	.	.	.	8cc	.	.	.
2r	.	8B-yL	.	4G	de-	2dd	.	2b-y	Me-
.	.	8AJ	.	.	.	.	.	.	.
.	.	4.G	.	4.B-y	-si-	.	.	.	.
2G	ma	.	.	.	.	2dd	-to,	4g	-co
.	.	8A	.	8cL	.	.	.	.	.
.	.	4B-y	.	8d	.	.	.	4g	non
.	.	.	.	8B-yJ	.	.	.	.	.
=44	=44	=44	=44	=44	=44	=44	=44	=44	=44
2.F	non	2A	-go,	2c	-o,	4ff	che ’l	2a	ven-
.	.	.	.	.	.	4ff	de-	.	.
.	.	4r	.	2A	ma	2ff	-si-	4a	-ga,
4D	si	2d	ma	.	.	.	.	4a	co-
4G	rat-	.	.	2G	non	4dd	-o	4b-y	-me
4C	-to	2c	non	.	.	4ee	Me-	4g	ve-
4C	che ’l	.	.	4E	si	4gg	-co	4g	-nir
4F	de-	[4A	si	[4F	rat-	4ff	non	[4a	so-
=45	=45	=45	=45	=45	=45	=45	=45	=45	=45
2D	-si-	4A]	.	4F]	.	2ff	ven-	8aL]	.
.	.	.	.	.	.	.	.	8g	.
.	.	2B-y	rat-	4F	-to	.	.	8f	.
.	.	.	.	.	.	.	.	8eJ	.
4D	-o	.	.	2B-y	che ’l	4ff	-ga,	4d	-le,
4.E-X	Me-	4G	-to,	.	.	2ee-X	co-	2g	co-
.	.	2c	che ’l	4G	de-	.	.	.	.
8DL	.	.	.	.	.	.	.	.	.
8C	.	.	.	2G	-si-	4ee-i	-me	4g	-me
8BB-yJ	.	.	.	.	.	.	.	.	.
4C	.	4c	de-	.	.	4ee-i	ve-	4.g	ve-
[4GG	-co	4B-y	-si-	4G	-o	[4dd	-nir	.	.
.	.	.	.	.	.	.	.	8a	.
=46	=46	=46	=46	=46	=46	=46	=46	=46	=46
4GG]	.	4B-y	-o	2d	Me-	8ddL]	.	8b-yL	.
.	.	.	.	.	.	8cc	.	8gJ	.
4GG	non	2B-y	Me-	.	.	8b-y	.	2dd	.
.	.	.	.	.	.	8aJ	.	.	.
2G	ven-	.	.	4d	-co	4g	.	.	.
.	.	4G	-co	4d	non	4gg	so-	4bnX	-nir
4C	-ga,	4G	non	2c	ven-	4ee	-le,	8ccL	so-
.	.	.	.	.	.	.	.	8b-i	.
4F	co-	2A	ven-	.	.	2ff	co-	8a	.
.	.	.	.	.	.	.	.	8gJ	.
4D	-me	.	.	2F	-ga,	.	.	4.a	.
[4F	ve-	4A	-ga,	.	.	4cc	-me	.	.
.	.	.	.	.	.	.	.	8b-y	.
=47	=47	=47	=47	=47	=47	=47	=47	=47	=47
8FL]	.	2A	co-	4r	.	4.ff	ve-	4cc	.
8E	.	.	.	.	.	.	.	.	.
8D	.	.	.	2F	co-	.	.	4.dd	.
8CJ	.	.	.	.	.	8ee	.	.	.
4.BB-y	.	4B-y	-me	.	.	4dd	.	.	.
.	.	.	.	.	.	.	.	8cc	.
.	.	4F	ve-	4D	-me	4dd	-nir	4.b-y	.
8AA	.	.	.	.	.	.	.	.	.
4GG	.	4G	-nir	4B-y	ve-	1dd	so-	.	.
.	.	.	.	.	.	.	.	8a	.
4GG	-nir	4.d	so-	4B-y	-nir	.	.	2g	.
2D	so-	.	.	2A	so-	.	.	.	.
.	.	8c	.	.	.	.	.	.	.
.	.	4A	.	.	.	.	.	4f#i	.
=48	=48	=48	=48	=48	=48	=48	=48	=48	=48
1GG	-le.	2B-y	-le.	1G	-le.	1dd	-le.	1g	-le.
.	.	4r	.	.	.	.	.	.	.
.	.	2B-y	Ta-	.	.	.	.	.	.
1r	.	.	.	1r	.	1r	.	1r	.
.	.	4A	-ci-	.	.	.	.	.	.
.	.	2A	-to	.	.	.	.	.	.
=49	=49	=49	=49	=49	=49	=49	=49	=49	=49
2.E-X	Ta-	4G	vo,	2r	.	1r	.	0r	.
.	.	2G	Ta-	.	.	.	.	.	.
.	.	.	.	2B-y	Ta-	.	.	.	.
4D	-ci-	4F	-ci-	.	.	.	.	.	.
2D	-to	2F	-to	4A	-ci-	2.ff	Ta-	.	.
.	.	.	.	2A	-to	.	.	.	.
2C	vo,	2c	vo,	.	.	.	.	.	.
.	.	.	.	4G	vo,	4ee	-ci-	.	.
=50	=50	=50	=50	=50	=50	=50	=50	=50	=50
2r	.	2r	.	4r	.	2ee	-to	2r	.
.	.	.	.	2c	Ta-	.	.	.	.
2.E-i	Ta-	4r	.	.	.	2gg	vo,	4r	.
.	.	2G	Ta-	4B-y	-ci-	.	.	2e-X	Ta-
.	.	.	.	1B-y	-to	2r	.	.	.
4BB-y	-ci-	4F	-ci-	.	.	.	.	4d	-ci-
2BB-y	-to	[2F	-to	.	.	[2ff	Ta-	2d	-to
=51	=51	=51	=51	=51	=51	=51	=51	=51	=51
2F	vo,	4F]	.	2A	vo,	4ff]	.	2c	vo,
.	.	4.c	vo,	.	.	4ff	-ci-	.	.
2G	che	.	.	2r	.	2dd	-to	4r	.
.	.	8BnXiL	.	.	.	.	.	.	.
.	.	8BniJ	.	.	.	.	.	2g	che
.	.	16ALL	.	.	.	.	.	.	.
.	.	16BniJJ	.	.	.	.	.	.	.
2.C	le	4c	.	4r	.	4ee	vo,	.	.
.	.	2G	che	2c	che	4ee	che	4.cc	le
.	.	.	.	.	.	4ee	le	.	.
.	.	.	.	.	.	.	.	8b-yL	.
4D	pa-	[4d	le	[4F	le	[4ff	pa-	8a	.
.	.	.	.	.	.	.	.	8gJ	.
=52	=52	=52	=52	=52	=52	=52	=52	=52	=52
2D	-ro-	4d]	.	4F]	.	4ff]	.	4a	.
.	.	4A	pa-	4F	pa-	2dd	-ro-	4f	pa-
2BB-y	-le	4B-y	-ro-	4F	-ro-	.	.	4f	-ro-
.	.	4B-y	-le	4F	-le	4dd	-le	4f	-le
2C	mor-	2G	mor-	2c	mor-	2gg	mor-	2e-X	mor-
4GG	-te	4G	-te	4B-y	-te	4gg	-te	4d	-te
4r	.	[4E-X	Fa-	4r	.	4r	.	4r	.
=53	=53	=53	=53	=53	=53	=53	=53	=53	=53
2r	.	4E-]	.	2B-y	Fa-	0r	.	1r	.
.	.	4D	-rian	.	.	.	.	.	.
4r	.	4F	pian-	4A	-rian	.	.	.	.
2BB-y	Fa-	4F	-ger	2d	pian-	.	.	.	.
.	.	4G	la	.	.	.	.	2r	.
4AA	-rian	2A	gen-	2c	-ger	.	.	.	.
2D	pian-	.	.	.	.	.	.	2f	Fa-
.	.	8GL	.	4BnXi	la	.	.	.	.
.	.	8FJ	.	.	.	.	.	.	.
=54	=54	=54	=54	=54	=54	=54	=54	=54	=54
2C	-ger	2G	.	2c	gen-	2r	.	4e	-rian
.	.	.	.	.	.	.	.	2cc	pian-
4AA	la	1F	-te,	4c	-te,	1ff	Fa-	.	.
8BB-yL	gen-	.	.	2d	Fa-	.	.	2b-y	-ger
8CJ	.	.	.	.	.	.	.	.	.
8DL	.	.	.	.	.	.	.	.	.
8EJ	.	.	.	.	.	.	.	.	.
4F	.	.	.	4c	-rian	.	.	4a	la
4G	-te,	4r	.	2B-y	pian-	4dd	-rian	[2b-y	gen-
[4E-X	Fa-	4B-y	Fa-	.	.	[4gg	pian-	.	.
=55	=55	=55	=55	=55	=55	=55	=55	=55	=55
4E-]	.	4G	-rian	2.B-y	-ger	4gg]	.	2b-]	.
4D	-rian	2d	pian-	.	.	2ff	-ger	.	.
2G	pian-	.	.	.	.	.	.	2b-y	-te,
.	.	2B-y	-ger	4G	la	4ee	la	.	.
2F	-ger,	.	.	2c	gen-	2ff	gen-	1r	.
.	.	4A	la	.	.	.	.	.	.
2B-y	Fa-	4B-y	gen-	2d	-te,	4ff	-te,	.	.
.	.	8GL	.	.	.	4b-y	Fa-	.	.
.	.	8AJ	.	.	.	.	.	.	.
=56	=56	=56	=56	=56	=56	=56	=56	=56	=56
4G	-rian	8B-yL	.	4r	.	4dd	-rian	2b-y	Fa-
.	.	8A	.	.	.	.	.	.	.
2G	pian-	8B-y	.	4G	la	4.dd	pian-	.	.
.	.	8cJ	.	.	.	.	.	.	.
.	.	4d	-te:	4BnX	gen-	.	.	4g	-rian
.	.	.	.	.	.	8ee	.	.	.
2F	-ger	4A	et	2c	.	4ff	.	2cc	pian-
.	.	4A	i’	.	.	4ff	-ger	.	.
4BB-y	la	4d	de-	4F	-te,	4ff	la	2b-y	-ger
2F	gen-	2c	-si-	4r	.	2ff	gen-	.	.
.	.	.	.	[4F	la	.	.	4a	la
=57	=57	=57	=57	=57	=57	=57	=57	=57	=57
2BB-y	-te:	4B-y	-o	4F]	.	4dd	-te:	2b-y	gen-
.	.	4d	Che	4.D	gen-	4ff	et	.	.
4r	.	4d	le	.	.	2.ff	i’	4a	-te:
.	.	.	.	8E	.	.	.	.	.
4D	et	2A	la-	4F	.	.	.	4a	et
4D	i’	.	.	2F	-te:	.	.	4a	i’
4A	de-	4A	-gri-	.	.	4cc	de-	4cc	de-
2G	-si-	2B-y	-me	2r	.	2dd	-si-	2b-y	-si-
=58	=58	=58	=58	=58	=58	=58	=58	=58	=58
4F	-o	4c	mie	2A	et	4ff	-o	2a	-o
2D	Che	4F	si	.	.	4ff	Che	.	.
.	.	4F	spar-	4A	i’	4ff	le	2a	Che
4D	le	4D	-gan	4d	de-	2ff	la-	.	.
4.AA	la-	2A	so-	2c	-si-	.	.	2cc	le
.	.	.	.	.	.	4ee	-gri-	.	.
8AA	-gri-	.	.	.	.	.	.	.	.
2BB-y	-me	4D	-le,	4B-y	-o	4.dd	-me	4.f	la-
.	.	4D	et	[4d	Che	.	.	.	.
.	.	.	.	.	.	8cc	.	8f	-gri-
=59	=59	=59	=59	=59	=59	=59	=59	=59	=59
2GG	mie	4G	i’	4d]	.	8b-yL	.	2b-y	-me
.	.	.	.	.	.	8aJ	.	.	.
.	.	4G	de-	2d	le	4g	.	.	.
2D	si	2F	-si-	.	.	4a	mie	2.a	mie
.	.	.	.	2A	la-	4dd	si	.	.
4AA	spar-	4E	-o	.	.	4cc#X	spar-	.	.
4D	-gan	4F	Che	4A	-gri-	4dd	-gan	4f	si
2C	so-	2E-X	le	2c	-me	4.g	so-	4g	spar-
.	.	.	.	.	.	.	.	4c	-gan
.	.	.	.	.	.	8a	.	.	.
=60	=60	=60	=60	=60	=60	=60	=60	=60	=60
4BB-y	-le,	4D	la-	4d	mie	8b-yL	.	2f	so-
.	.	.	.	.	.	8cc	.	.	.
2BB-y	Che	4F	-gri-	2D	si	8dd	.	.	.
.	.	.	.	.	.	8eeJ	.	.	.
.	.	4.F	-me	.	.	8ffL	.	2d	-le,
.	.	.	.	.	.	8eeJ	.	.	.
4BB-y	le	.	.	2F	spar-	4.dd	.	.	.
.	.	8G	.	.	.	.	.	.	.
4.AA	la-	2A	.	.	.	.	.	4r	.
.	.	.	.	.	.	8cc#i	.	.	.
.	.	.	.	4E	-gan	4cc#i	.	2a	et
8AA	-gri-	.	.	.	.	.	.	.	.
2D	-me	4A	mie	4.F	so-	2dd	-le,	.	.
.	.	[4d	si	.	.	.	.	4a	i’
.	.	.	.	8G	.	.	.	.	.
=61	=61	=61	=61	=61	=61	=61	=61	=61	=61
4D	mie	8dL]	.	2A	.	2ff	et	4dd	de-
.	.	8cJ	.	.	.	.	.	.	.
4F	si	4A	.	.	.	.	.	2cc	-si-
4C	spar-	4c	spar-	2G	-le,	4ee	i’	.	.
4E-X	-gan	4G	-gan	.	.	4gg	de-	4b-y	-o
2D	so-	4B-y	so-	4r	.	1ff	-si-	2dd	Che
.	.	4A	-le,	2d	Che	.	.	.	.
4D	-le,	4r	.	.	.	.	.	4dd	le
4D	Che	4A	Che	4d	le	.	.	[4a	la-
=62	=62	=62	=62	=62	=62	=62	=62	=62	=62
4F	le	4A	le	2c	la-	2ff	-o	8aL]	.
.	.	.	.	.	.	.	.	8aJ	-gri-
2F	la-	2A	la-	.	.	.	.	2cc	-me
.	.	.	.	4c	-gri-	4r	.	.	.
4BB-y	-gri-	4G	-gri-	4.B-y	-me	2dd	Che	2dd	mie
4.BB-y	-me	4F	-me	.	.	.	.	.	.
.	.	.	.	8c	.	.	.	.	.
.	.	4.F	mie	4d	.	4dd	le	4d	si
8C	.	.	.	.	.	.	.	.	.
2D	.	.	.	4d	mie	4.a	la-	2f	spar-
.	.	8G	.	.	.	.	.	.	.
.	.	[4A	.	4D	si	.	.	.	.
.	.	.	.	.	.	8a	-gri-	.	.
=63	=63	=63	=63	=63	=63	=63	=63	=63	=63
4AA	mie	8AL]	.	4.A	spar-	2cc	-me	4e	-gan
.	.	8G	.	.	.	.	.	.	.
4A	si	8F	.	.	.	.	.	4.f	so-
.	.	8EJ	.	8G	.	.	.	.	.
8AL	spar-	1D	.	8FL	.	4dd	mie	.	.
8G	.	.	.	8EJ	.	.	.	8g	.
8F	.	.	.	4D	.	4ff	si	4.a	.
8EJ	.	.	.	.	.	.	.	.	.
4D	.	.	.	2B-y	-gan	4ff	spar-	.	.
.	.	.	.	.	.	.	.	8g	.
4GG	-gan	.	.	.	.	4dd	-gan	2g	.
2D	so-	4r	.	2A	so-	4.dd	so-	.	.
.	.	4D	si	.	.	.	.	4f#i	-le,
.	.	.	.	.	.	8cc	.	.	.
=64	=64	=64	=64	=64	=64	=64	=64	=64	=64
4GG	-le,	4D	spar-	4G	-le,	2b-y	.	4r	.
4GG	et	4G	-gan	2d	et	.	.	4d	et
2.D	i’	2F	so-	.	.	4a	-le,	4.f	i’
.	.	.	.	2A	i’	4dd	et	.	.
.	.	.	.	.	.	.	.	8g	.
.	.	4D	-le,	.	.	4ff	i’	8aL	.
.	.	.	.	.	.	.	.	8fJ	.
4BB-y	de-	2F	et	4d	de-	4ff	de-	2b-y	.
2F	-si-	.	.	2c	-si-	2ff	-si-	.	.
.	.	4F	i’	.	.	.	.	4a	de-
=65	=65	=65	=65	=65	=65	=65	=65	=65	=65
2BB-y	-o,	4F	de-	4B-y	-o	4dd	-o,	2b-y	-si-
.	.	4.D	-si-	4d	Che	4ff	et	.	.
4r	.	.	.	4d	le	2.ff	i’	4a	-o,
.	.	8E	.	.	.	.	.	.	.
4D	et	4F	.	2A	la-	.	.	4a	et
4D	i’	2F	-o,	.	.	.	.	4a	i’
4A	de-	.	.	4A	-gri-	4cc	de-	4cc	de-
2G	-si-	2r	.	2B-y	-me	2dd	-si-	2b-y	-si-
=66	=66	=66	=66	=66	=66	=66	=66	=66	=66
4F	-o	2A	et	4c	mie	4ff	-o	2a	-o
2D	Che	.	.	4F	si	4ff	Che	.	.
.	.	4A	i’	4F	spar-	4ff	le	2a	Che
4D	le	4d	de-	4D	-gan	2ff	la-	.	.
4.AA	la-	2c	-si-	2A	so-	.	.	2cc	le
.	.	.	.	.	.	4ee	-gri-	.	.
8AA	-gri-	.	.	.	.	.	.	.	.
2BB-y	-me	4B-y	-o	4D	-le,	4.dd	-me	4.f	la-
.	.	[4d	Che	4D	et	.	.	.	.
.	.	.	.	.	.	8cc	.	8f	-gri-
=67	=67	=67	=67	=67	=67	=67	=67	=67	=67
2GG	mie	4d]	.	4G	i’	8b-yL	.	2b-y	-me
.	.	.	.	.	.	8aJ	.	.	.
.	.	2d	le	4G	de-	4g	.	.	.
2D	si	.	.	2F	-si-	4a	mie	2.a	mie
.	.	2A	la-	.	.	4dd	si	.	.
4AA	spar-	.	.	4E	-o	4cc#X	spar-	.	.
4D	-gan	4A	-gri-	4F	Che	4dd	-gan	4f	si
2C	so-	2c	-me	2E-X	le	4.g	so-	4g	spar-
.	.	.	.	.	.	.	.	4c	-gan
.	.	.	.	.	.	8a	.	.	.
=68	=68	=68	=68	=68	=68	=68	=68	=68	=68
4BB-y	-le,	4d	mie	4D	la-	8b-yL	.	2f	so-
.	.	.	.	.	.	8cc	.	.	.
2BB-y	Che	2D	si	4F	-gri-	8dd	.	.	.
.	.	.	.	.	.	8eeJ	.	.	.
.	.	.	.	4.F	-me	8ffL	.	2d	-le,
.	.	.	.	.	.	8eeJ	.	.	.
4BB-y	le	2F	spar-	.	.	4.dd	.	.	.
.	.	.	.	8G	.	.	.	.	.
4.AA	la-	.	.	2A	.	.	.	4r	.
.	.	.	.	.	.	8cc#i	.	.	.
.	.	4E	-gan	.	.	4cc#i	.	2a	et
8AA	-gri-	.	.	.	.	.	.	.	.
2D	-me	4.F	so-	4A	mie	2dd	-le,	.	.
.	.	.	.	[4d	si	.	.	4a	i’
.	.	8G	.	.	.	.	.	.	.
=69	=69	=69	=69	=69	=69	=69	=69	=69	=69
4D	mie	2A	.	8dL]	.	2ff	et	4dd	de-
.	.	.	.	8cJ	.	.	.	.	.
4F	si	.	.	4A	.	.	.	2cc	-si-
4C	spar-	2G	-le,	4c	spar-	4ee	i’	.	.
4E-X	-gan	.	.	4G	-gan	4gg	de-	4b-y	-o
2D	so-	4r	.	4B-y	so-	1ff	-si-	2dd	Che
.	.	2d	Che	4A	-le,	.	.	.	.
4D	-le,	.	.	4r	.	.	.	4dd	le
4D	Che	4d	le	4A	Che	.	.	[4a	la-
=70	=70	=70	=70	=70	=70	=70	=70	=70	=70
4F	le	2c	la-	4A	le	2ff	-o	8aL]	.
.	.	.	.	.	.	.	.	8aJ	-gri-
2F	la-	.	.	2A	la-	.	.	2cc	-me
.	.	4c	-gri-	.	.	4r	.	.	.
4BB-y	-gri-	4.B-y	-me	4G	-gri-	2dd	Che	2dd	mie
4.BB-y	-me	.	.	4F	-me	.	.	.	.
.	.	8c	.	.	.	.	.	.	.
.	.	4d	.	4.F	mie	4dd	le	4d	si
8C	.	.	.	.	.	.	.	.	.
2D	.	4d	mie	.	.	4.a	la-	2f	spar-
.	.	.	.	8G	.	.	.	.	.
.	.	4D	si	[4A	.	.	.	.	.
.	.	.	.	.	.	8a	-gri-	.	.
=71	=71	=71	=71	=71	=71	=71	=71	=71	=71
4AA	mie	4.A	spar-	8AL]	.	2cc	-me	4e	-gan
.	.	.	.	8G	.	.	.	.	.
4A	si	.	.	8F	.	.	.	4.f	so-
.	.	8G	.	8EJ	.	.	.	.	.
8AL	spar-	8FL	.	1D	.	4dd	mie	.	.
8G	.	8EJ	.	.	.	.	.	8g	.
8F	.	4D	.	.	.	2ff	si	4.a	.
8EJ	.	.	.	.	.	.	.	.	.
4D	.	2B-y	-gan	.	.	.	.	.	.
.	.	.	.	.	.	.	.	8g	.
4GG	-gan	.	.	.	.	4.dd	spar-	2g	.
2D	so-	2A	so-	2r	.	.	.	.	.
.	.	.	.	.	.	8cc	.	.	.
.	.	.	.	.	.	4a	.	4f#i	.
=72	=72	=72	=72	=72	=72	=72	=72	=72	=72
2GG	-le,	[0Gl	-le.	2D	si	2bnX	-gan	[0gl	-le.
2C	si	.	.	4E-X	spar-	1.cc	so-	.	.
.	.	.	.	4E-i	-gan	.	.	.	.
4E-X	spar-	.	.	4.C	so-	.	.	.	.
4E-i	-gan	.	.	.	.	.	.	.	.
.	.	.	.	8D	.	.	.	.	.
2C	so-	.	.	2E-i	.	.	.	.	.
=73	=73	=73	=73	=73	=73	=73	=73	=73	=73
00GGl	-le.	00G]	.	00Dl	-le.	00bnXil	-le.	00g]	.
==	==	==	==	==	==	==	==	==	==
*-	*-	*-	*-	*-	*-	*-	*-	*-	*-
!!!system-decoration: [*]
!!!RDF**kern: i = editorial accidental
!!!RDF**kern: l = terminal long
!!!ENC: Jessie Ann Owens and Scott Metcalfe
!!!END: 2025/10/28
!!!EED: Jessie Ann Owens and Scott Metcalfe
!!!EEV: 2025/10/28
!!!YEC: Copyright 2025 Jessie Ann Owens and Scott Metcalfe, All Rights Reserved
!!!ONB: Translated from MusicXML on 2025/10/28
!!!verovio: header encoded
!!!header-left: Edited by @{ENC} (2025)\n
!!!header-right:
!!!header-center: